X:5755
T:Slngpolska 
A:Vstergtland
M:3/4
O:Sweden
R:Slngpolska
Z:Richard Robinson 
%%TUNEURL: http://www.leeds.ac.uk/music/Info/RRTuneBk/gettune/00000bea.html
%%ID:00000bea
K:A
ee c/A/c/e/ a2| e/f/e/d/ c/d/e/f/ f2|\
ee c/A/c/e/ a2| e/f/e/d/ c/d/e/f/ f2|\
e/f/e/d/ c/d/c/B/ Ac/c/| cB/B/ BA GA| \
|1 \
M:2/4
A4 z4 :|2 \
M:2/4
A4 E4|:\
M:3/4
cc dd cc| cB/c/ BA/B/ cA|\
M:1/4
E3E|\
M:3/4
cc dd cc| cB/c/ BA/B/ c2|\
M:1/4
E4|\
M:3/4
cc dd cc| cB/c/ BA/B/ cA|\
M:1/4
E3E|\
M:3/4
cc dd cc| cB/c/ BA GA |1\
M:2/4
A4 E4 :|2\
M:2/4
A4 z4 |]
